!!!!SEGMENT: pl-wumfc--n68232--001_moniuszko-stanislaw--paria-wyciag-fortepianowy-wstep.krn
!!!cenid: 18xx:4131
!!!COM: Moniuszko, Stanisław
!!!COM-rismID: pe30008351
!!!CDT: 1819/05/05-1872/06/04
!!!CNT: Polish
!!!GTL: Paria – wyciąg fortepianowy
!!!OTL: Wstęp
!!!OMV: 001
!!!PDT:
!!!AGN:
!!!SMS-siglum: PL-Wumfc
!!!SMS-shelfmark: N68232
!!!SMS-variant:
!!!SMS-altvar:
!!!SMS-shelfwork: 001-001 G
!!!NIFC-rismSourceID: 1001171381
!!!NIFC-rismChildID: 1001171381
!!!NIFC-islandoraID: pl-wumfc:7210
!!!URL-pdf-islandora: https://repozytorium.nifc.pl/islandora/object/pl-wumfc%3A7210/datastream/PDF/view
!!!URL-scan: https://polish.musicsources.pl/pl/lokalizacje/galeria/druki-muzyczne/12634/1 @EN{Scan on Polish Music Sources Website} @PL{Skany w portalu Dziedzictwo Muzyki Polskiej w otwartym dostępie}
!!!ONB-nifc: UWAGA: str. 4-6. Uwaga: proszę w pliku umieszczać obsadę, która występuje tylko w danej części.
!!!AIN: 1 piano
!!!key: G
**kern	**kern	**dynam
*part1	*part1	*part1
*staff2	*staff1	*
*I"Piano.	*I"Piano.	*
*Ipiano	*Ipiano	*
*ICklav	*ICklav	*
*clefF4	*clefG2	*
*k[f#]	*k[f#]	*
*G:	*G:	*
*M4/4	*M4/4	*
*met(c)	*met(c)	*
=1	=1	=1
!!LO:TX:B:a:t=Grave non troppo lento.
!	!LO:TX:b:t=Tutti.	!
2G 2E 2BB 2GG/	2ee 2b 2g 2e/	ff
4E 4BB 4EE/	4ee 4b 4g 4e/	.
4BB 4BBB/	4ff# 4b 4f#\	.
=2	=2	=2
4..E 4..BB 4..EE/	4..gg 4..ee 4..b 4..g\	.
16BB 16BBB/	16gg 16ee 16b 16g\	.
4E 4EE/	2gg 2ee 2b 2g\	.
4D 4DD/	.	.
=3	=3	=3
2C 2CC/	2gg 2ee 2cc 2g\	.
4..AA 4..AAA/	4..ccc 4..aa 4..ee 4..cc\	.
16C 16CC/	16ccc 16aa 16ee 16cc\	.
=4	=4	=4
4.E 4.EE/	(4.bb 4.gg 4.ee 4.b^<\	.
!	!LO:TX:a:t=V.Cl.	!
8r	8gg\	p
2r	8.ff#\L	.
.	16ee\K	.
.	8b\	.
.	8g\J)	.
=5	=5	=5
!LO:TX:a:t=V-lli e V-le.	!	!
(4.E\	4.e/	.
!	!	!LO:HP:b=2
8F#\	8r	<
8G\L	2rcc	.
8B\	.	[[
!LO:TX:a:t=m.d	!	!
8e>\	.	.
8g>\J)	.	.
!!LO:LB:g=original
=6	=6	=6
*	*^	*
1r	1b	4r	.
!	!	!LO:TX:b:t=Ob.:note=odnosi się do górnego głosu	!
!	!	!LO:TX:b:t=Fag.:note=odnosi się do dolnego głosu	!
.	.	(4g 4e\	.
.	.	4f# 4d#X\	.
.	.	4fn 4dn\	.
=7	=7	=7	=7
*	*	*^	*
1ryy	(4b/	2e 2c#X\	2ryy	.
.	8a/L	.	.	.
.	8g/J)	.	.	.
.	(>4..a/	2cn\)	(<8e\L	.
.	.	.	8g\	.
.	.	.	8f#\	.
.	.	.	8e\J)	.
.	16b/)	.	.	.
*	*v	*v	*v	*
=8	=8	=8
(8qBBB/	.	.
*	*^	*
1BB)	[2b/	8d#X 8B\	.
!	!LO:TX:b:t=V-ni.	!	!
.	.	(8d#L 8B\	.
.	.	8e 8c#X\)	.
.	.	8f#J 8d#\	.
.	8b/L]	4g 4e^\	.
.	(8a/	.	.
.	8g/	8e\	.
.	8a/J)	8r	.
=9	=9	=9	=9
(8qBBB/	.	.	.
1BB)	[2b/	8r	.
.	.	(8d#XL 8B\	.
.	.	8e 8c#X\)	.
.	.	8f#J 8d#\	.
.	8b/L]	4g 4e^\	.
.	(8a/	.	.
.	8g/	8e\	.
.	8a/J)	8r	.
!!LO:LB:g=original
=10	=10	=10	=10
*^	*	*	*
8.B/L	8BB\	(4.b/	8..d#X\L	.
.	8r	.	.	.
16c#X/Jk	.	.	.	.
.	.	.	32e\Jkk	.
8d#X/	4r	.	8f#\	.
8re	.	8a#X/)	8r	.
2r	2ryy	8.b/L	2ryy	.
.	.	16g/K	.	.
.	.	8.f#/	.	.
.	.	16dn/Jk	.	.
*v	*v	*	*	*
*	*v	*v	*
=11	=11	=11
4..BB\	4..B<^/	f
16Cn\	16c</	.
!	!LO:TX:i:b:t=marcato	!
8.D\L	8.d</L	.
16AA\K	16A</K	.
8BB\	8B</	.
16r	16r<	.
16FF#\Jk	16F#</Jk	.
!!LO:REH:t=1
=12	=12	=12
!	!LO:TX:b:t=Tutti.	!
2G 2GG/	2ee 2b 2e/	ff
4E 4BB 4EE/	4ee 4b 4g 4e/	.
4BB 4BBB/	4ff# 4b 4f#\	.
=13	=13	=13
4..E 4..BB 4..EE/	4..gg 4..ee 4..b 4..g\	.
16BB 16BBB/	16gg 16ee 16b 16g\	.
4E 4EE/	2gg 2ee 2b 2g\	.
4D 4DD/	.	.
!!LO:LB:g=original
=14	=14	=14
2C 2CC/	2gg 2ee 2cc 2g\	.
4..A 4..Fn 4..C 4..AA\	4..ccc 4..ffn 4..cc\	.
16F 16FFn/	16ddd 16ccc 16aa 16ff\	.
=15	=15	=15
4..C 4..CC/	4.eee 4.gg 4.ee^^\	fp
.	8r	.
(16BB 16BBB/	.	.
8.CL 8.CC/	2r	.
16BBK 16BBB/	.	.
8.C 8.CC/	.	.
16BBJk 16BBB/)	.	.
=16	=16	=16
4.C 4.CC/	1r	.
!LO:TX:a:t=V-lli	!	!
(16EE/LL	.	.
16GG/JJ	.	.
8C\L	.	.
8E\	.	.
8G\	.	.
8c\J)	.	.
=17	=17	=17
*^	*	*
4r	4ryy	1e^	.
!LO:TX:a:t=Fag.	!	!	!
!LO:TX:b:t=Al.	!	!	!
(4G\	4ryy	.	.
4A 4F#\	4ryy	.	.
4A#X/)	4G 4E\	.	.
!!LO:LB:g=original
=18	=18	=18	=18
*	*^	*	*
8r	1EE	4r	[2e/	.
(8BL 8G#X/	.	.	.	<
8c 8A/	.	8.r	.	[ >
8BJ 8G#/)	.	.	.	]]
.	.	16BB\	.	.
2A/	.	2BB\	8e/L]	.
.	.	.	(8d#X/	.
.	.	.	8c#X/	.
.	.	.	8d#/J)	.
*	*v	*v	*	*
=19	=19	=19	=19
8r	4..EE\	[2e/	.
(8BL 8G/	.	.	<
8c 8A/	.	.	[ >
8BJ 8G/)	.	.	]]
.	16AAA\	.	.
2A/	8AAA\	8e/L]	.
.	8r	(8e'/	<
.	4r	8fn'/	.
.	.	8f#X'/J)	[[
=20	=20	=20	=20
.	8qGGG/	.	.
*	*^	*	*
8rc	2GG\	4r	[2g^/	.
(8dL 8B/	.	.	.	<
8e 8c/	.	8.r	.	[ >
8dJ 8B/)	.	.	.	]]
.	.	16D\	.	.
2c 2A/	2ryy	2D\	8g/L]	.
.	.	.	(8f#/	.
.	.	.	8e/	.
.	.	.	8f#/J)	.
=21	=21	=21	=21	=21
8rc	1GG	4r	[2g/	pp
(8d#XL 8B/	.	.	.	<
8e 8c/	.	8.r	.	[ >
8dnJ 8B/)	.	.	.	]]
.	.	16D\	.	.
2c 2A/	.	2D\	8g/L]	.
.	.	.	(8f#/	.
.	.	.	8e/	.
.	.	.	8f#/J)	.
*v	*v	*v	*	*
!!LO:PB:g=original
=22	=22	=22
8GG'\	8gL 8B</	.
8r	8G</J	.
8GG'\	8r<	.
8r	8G<'/	.
8GG'\	8r<	.
8r	8G<'/	.
8GG'\	8r<	.
8r	8G<'/	.
=23	=23	=23
!	!LO:TX:a:t=V-ni e Cor.	!
8GG'/L	(2e 2c/	.
8G'/	.	.
8GG'/	.	.
8G'/J	.	.
8GG'/L	4d 4B/	.
8G'/	.	.
8GG'/	8eL 8c/	.
8G'/J	8fnJ 8d/)	.
=24	=24	=24
*tremolo	*	*
8GG'/L	(2g (2e/	.
8G'/	.	.
8GG'/	.	.
8G'/J	.	.
8GG'/L	4e 4c/))	.
8G'/	.	.
8GG'/	4c 4A/	.
8G'/J	.	.
=25	=25	=25
8GG'/L	(4.d 4.B/	<
8G'/	.	.
8GG'/	.	.
8G'/J	8e 8c/	[
8GG'/L	8fnL 8d/	>
8G'/	8a 8f/	.
8GG'/	8g 8e/	.
8G'/J	8fJ 8d/)	]]
!!LO:LB:g=original
=26	=26	=26
8GG'/L	4e 4c'/	.
8G'/	.	.
8GG'/	4c 4A'/	.
8G'/J	.	.
8GG'/L	2d 2B/	.
8G'/	.	.
8GG'/	.	.
8G'/J	.	.
*Xtremolo	*	*
=27	=27	=27
*^	*	*
4C/	8GG'\L	(2e 2B-X/	.
.	8G'\	.	.
4C#X/	8GG'\	.	.
.	8G'\J	.	.
4D/	8D'\L	4d 4Bn/	.
.	8G'\	.	.
4GG/	8GG'\	8eL 8c/	.
.	8G'\J	8fnJ 8d/)	.
=28	=28	=28	=28
*	*	*^	*
2r	8GG'\L	(>4e 4c/	2ryy	.
.	8G'\	.	.	.
.	8GG'\	4g 4d 4B/	.	<
.	8G'\J	.	.	.
4A/	8GG'\L	4cc/	2e\	.
.	8G'\	.	.	.
4G/	8GG'\	4b/)	.	.
.	8G'\J	.	.	.
*	*	*v	*v	*
=29	=29	=29	=29
2ryy	8GG'\L	(>4A 4Fn</	[
.	8G'\	.	.
.	8GG'\	4c 4E</	.
.	8G'\J	.	.
4D/	8GG'\L	4fn 4B/	.
.	8G'\	.	.
8C/L	8GG'\	4e 4c/)	.
8E/J	8E'\J	.	.
*v	*v	*	*
!!LO:LB:g=original
=30	=30	=30
*	*^	*
8GG'\L	2.d/	4c\	.
8GG'\	.	.	.
8G'\	.	(8B\L	.
8G'\J	.	8A\J	.
8GG'/L	.	4B\)	.
8G'/J	.	.	.
!	!LO:TX:a:t=Ob.	!	!
8FFn'/L	4dd#X 4a 4d#X/	4ryy	.
8Fn'/J	.	.	.
=31	=31	=31	=31
8EE'/L	2ee/	4g#X 4e\	.
8E'/J	.	.	.
8CC#X'/L	.	4b-X 4gn\	.
8C#X'/J	.	.	.
8DD'/L	4.dd/	4a 4f#X\	.
8D'/J	.	.	.
8GGG'/L	.	4bn 4fn\	.
8GG'/J	16ee/LL	.	.
.	16ffn/JJ	.	.
=32	=32	=32	=32
.	.	8qe/	.
8CC'/L	2gg/	2cc\	.
8C'/J	.	.	.
8EE'/L	.	.	.
8E'/J	.	.	.
8AA'\L	4ee/	4cc\	.
8A'\J	.	.	.
8GG'/L	4cc/	4a 4e\	.
8G'/J	.	.	.
=33	=33	=33	=33
8FFn'/L	(4.dd/	[4cc 4a 4e\	.
8Fn'/J	.	.	.
8EE'/L	.	4cc] 4g\	.
8E'/J	8ee/	.	.
8DD'/L	8ffn/L	4a\	.
8D'/J	8aa/	.	.
8BBB'/L	8gg/	4dd\	.
8BB'/J	8ff/J	.	.
!!LO:LB:g=original
=34	=34	=34	=34
8CC'/L	4ee/	4g\	.
8C'/J	.	.	.
8AAA-X'/L	4cc/	2fn\	.
8AA-X'/J	.	.	.
8GGG'/L	4dd 4b/	.	.
8GG'/J	.	.	.
8FFn'/L	4dd#X/)	4an\	.
8Fn'/J	.	.	.
=35	=35	=35	=35
8EE'/L	2ee/	4b 4g#X\	.
8E'/J	.	.	.
8AAA'/L	.	4cc#X 4gn\	.
8AA'/J	.	.	.
8DD'/L	4.dd/	4a 4f#X\	.
8D'/J	.	.	.
8GGG'/L	.	4b 4fn\	.
8GG'/J	16ee/LL	.	.
.	16ffn/JJ	.	.
*	*v	*v	*
=36	=36	=36
8CC'/L	(4ee 4cc 4e/	.
8C'/J	.	.
8EE'/L	4gg 4b 4g\	.
8E'/J	.	.
8AA'\L	4ccc 4cc\	.
8A'\J	.	.
8GG'/L	4bb 4ee 4b\)	.
8G'/J	.	.
=37	=37	=37
*	*^	*
8FFn'/L	(4aa 4a\	2ryy	.
8Fn'/J	.	.	.
8EE'/L	4gg 4cc 4g\	.	.
8E'/J	.	.	.
8DD'/L	4ffn 4a/	2fn\	.
8D'/J	.	.	.
8FF'/L	4dd 4a-X/)	.	.
8F'/J	.	.	.
!!LO:LB:g=original
=38	=38	=38	=38
*tremolo	*	*	*
32GG\LLL	[2cc/	8r	.
32G\	.	.	.
32GG\	.	.	.
32G\	.	.	.
32GG\	.	(8gL 8e\	.
32G\	.	.	.
32GG\	.	.	.
32G\	.	.	.
32GG\	.	8a 8fn\	.
32G\	.	.	.
32GG\	.	.	.
32G\	.	.	.
32GG\	.	8gJ 8e\)	.
32G\	.	.	.
32GG\	.	.	.
32G\JJJ	.	.	.
!	!	!	!LO:HP:b:t=cre-scen-do:ext2=ud
32GG\LLL	8cc/L]	2f 2d\	<
32G\	.	.	.
32GG\	.	.	.
32G\	.	.	.
32GG\	(8b/	.	.
32G\	.	.	.
32GG\	.	.	.
32G\	.	.	.
32GG\	8a/	.	.
32G\	.	.	.
32GG\	.	.	.
32G\	.	.	.
32GG\	8b/J)	.	.
32G\	.	.	.
32GG\	.	.	.
32G\JJJ	.	.	.
!!LO:REH:t=2
=39	=39	=39	=39
32GG\LLL	2cc/	8r	.
32G\	.	.	.
32GG\	.	.	.
32G\	.	.	.
32GG\	.	(8g#XL 8e\	.
32G\	.	.	.
32GG\	.	.	.
32G\	.	.	.
32GG\	.	8a 8fn\	.
32G\	.	.	.
32GG\	.	.	.
32G\	.	.	.
32GG\	.	8gnJ 8e\)	.
32G\	.	.	.
32GG\	.	.	.
32G\JJJ	.	.	.
32GG\LLL	(8.cc^/L	4a 4f#X 4d\	[
32G\	.	.	.
32GG\	.	.	.
32G\	.	.	.
32GG\	.	.	.
32G\	.	.	.
32GG\	16b/Jk	.	.
32G\	.	.	.
32GG\	8.cc^/L	4fn 4dn\	.
32G\	.	.	.
32GG\	.	.	.
32G\	.	.	.
32GG\	.	.	.
32G\	.	.	.
32GG\	16b/Jk)	.	.
32G\JJJ	.	.	.
*Xtremolo	*	*	*
*	*v	*v	*
=40	=40	=40
!	!LO:TX:b:t=Tutti.	!
2C 2GG 2EE 2CC/	2cc 2g 2e 2c/	ff
4C 4GG 4EE 4CC/	4cc 4g 4e 4c/	.
4GG 4GGG/	4dd 4b 4g 4d/	.
=41	=41	=41
4.C 4.CC/	4.ee 4.cc 4.g 4.e/	.
8GG 8GGG/	8ee 8cc 8g 8e/	.
4C 4CC/	2ee 2cc 2g 2e/	.
4BB 4BBB/	.	.
=42	=42	=42
2AA 2EE 2AAA/	2aa 2ee 2cc 2a\	.
4C 4AA 4CC/	4aa 4ee 4a\	.
4E 4EE/	4bb 4gg#X 4ee 4b\	.
!!LO:LB:g=original
=43	=43	=43
4..AA 4..AAA/	8ccc 8aa 8ee 8cc\	.
.	8r	.
*	*tremolo	*
.	32c/LLL	.
.	32A/	.
.	32c/	.
.	32A/	.
.	32c/	.
.	32A/	.
(16GG#X 16GGG#X/	32c/	.
.	32A/	.
8.AAL 8.AAA/	32c/	.
.	32A/	.
.	32c/	.
.	32A/	.
.	32c/	.
.	32A/	.
16GG#K 16GGG#/	32c/	.
.	32A/	.
8.AA 8.AAA/	32c/	.
.	32A/	.
.	32c/	.
.	32A/	.
.	32c/	.
.	32A/	.
16GG#Jk 16GGG#/)	32c/	.
.	32A/JJJ	.
=44	=44	=44
4.AA 4.AAA^/	32c/LLL	f
.	32A/	.
.	32c/	.
.	32A/	.
.	32c/	.
.	32A/	.
.	32c/	.
.	32A/	.
.	32c/	.
.	32A/	.
.	32c/	.
.	32A/	.
!LO:TX:i:b:t=marcato	!	!
8BB 8BBB/	32c/	.
.	32A/	.
.	32c/	.
.	32A/JJJ	.
8.CL 8.CC/	32c/LLL	.
.	32A/	.
.	32c/	.
.	32A/	.
.	32c/	.
.	32A/	.
16EE/K	32c/	.
.	32A/	.
8.AA/	32c/	.
.	32A/	.
.	32c/	.
.	32A/	.
.	32c/	.
.	32A/	.
16C/Jk	32c/	.
.	32A/JJJ	.
*	*Xtremolo	*
=45	=45	=45
*^	*^	*
*	*	*	*tremolo	*
!	!	!LO:TX:i:b:t=m.d.	!	!
!	!	!LO:TX:a:t=V-l.	!	!
2ryy	8.BB\L	4..e/	32A</LLL	p
.	.	.	32B</	.
.	.	.	32A</	.
.	.	.	32B</	.
.	.	.	32A</	.
.	.	.	32B</	.
.	16EE\Jk	.	32A</	.
.	.	.	32B</JJJ	.
.	4EE\	.	32A</LLL	.
.	.	.	32B</	.
.	.	.	32A</	.
.	.	.	32B</	.
.	.	.	32A</	.
.	.	.	32B</	.
.	.	16f#/	32A</	.
.	.	.	32B</JJJ	.
*tremolo	*	*	*Xtremolo	*
!LO:TX:i:b:t=m.s.	!	!	!	!
32G/LLL	2r	8g\L	2ryy	.
32B/	.	.	.	.
32G/	.	.	.	.
32B/	.	.	.	.
32G/	.	8b\	.	.
32B/	.	.	.	.
32G/	.	.	.	.
32B/	.	.	.	.
32G/	.	8ee\	.	.
32B/	.	.	.	.
32G/	.	.	.	.
32B/	.	.	.	.
32G/	.	8gg\J	.	.
32B/	.	.	.	.
32G/	.	.	.	.
32B/JJJ	.	.	.	.
*Xtremolo	*	*	*	*
*v	*v	*	*	*
=46	=46	=46	=46
!	!LO:TX:i:a:t=m.d.	!	!
(4..FFn\	8aa 8a^\	8r<	.
.	8ryy	32G</LLL	.
.	.	32A</	.
.	.	32G</	.
.	.	32A</JJJ	.
.	4ryy	32G</LLL	.
.	.	32A</	.
.	.	32G</	.
.	.	32A</	.
.	.	32G</	.
.	.	32A</	.
16GG\)	.	32G</	.
.	.	32A</JJJ	.
*	*	*tremolo	*
8.AAL 8.AAA\	2ryy	32Fn</LLL	.
.	.	32A</	.
.	.	32F</	.
.	.	32A</	.
.	.	32F</	.
.	.	32A</	.
16CC\K	.	32F</	.
.	.	32A</	.
8.FF\	.	32F</	.
.	.	32A</	.
.	.	32F</	.
.	.	32A</	.
.	.	32F</	.
.	.	32A</	.
16AA\Jk	.	32F</	.
.	.	32A</JJJ	.
*	*	*Xtremolo	*
*	*v	*v	*
!!LO:PB:g=original
=47	=47	=47
*^	*	*
*tremolo	*	*	*
32Fn/LLL	8.GG\L	4..c/	.
32G/	.	.	.
32F/	.	.	.
32G/	.	.	.
32F/	.	.	.
32G/	.	.	.
32F/	16CC\Jk	.	.
32G/	.	.	.
32F/	4CC\	.	.
32G/	.	.	.
32F/	.	.	.
32G/	.	.	.
32F/	.	.	.
32G/	.	.	.
32F/	.	16d/	<
32G/JJJ	.	.	.
32E/LLL	2r	8e/L	.
32G/	.	.	.
32E/	.	.	.
32G/	.	.	.
32E/	.	8g/	.
32G/	.	.	.
32E/	.	.	.
32G/	.	.	.
32E/	.	8cc/	.
32G/	.	.	.
32E/	.	.	.
32G/	.	.	.
32E/	.	8ee/J	[
32G/	.	.	.
32E/	.	.	.
32G/JJJ	.	.	.
*Xtremolo	*	*	*
*v	*v	*	*
=48	=48	=48
!	!LO:TX:b:t=Tutti.	!
16BB 16BBB/	2gg 2ffn 2dd 2g\	ff
32FnLLL 32D\	.	.
32GJJ 32E\	.	.
32FLL 32D\	.	.
32G\	.	.
32F 32D\	.	.
32G\JJJ	.	.
32FLLL 32D\	.	.
32G\	.	.
32F 32D\	.	.
32G\JJ	.	.
32FLL 32D\	.	.
32G\	.	.
32F 32D\	.	.
32G\JJJ	.	.
16C 16CC/	4..gg 4..ee 4..cc 4..g\	.
32ELLL 32C\	.	.
32G\	.	.
32EJJ 32C\	.	.
32G\LL	.	.
32E 32C\	.	.
32G\JJJ	.	.
32ELLL 32C\	.	.
32G\	.	.
32E 32C\	.	.
32G\JJ	.	.
32ELL 32C\	.	.
32G\	.	.
32E 32C\	16gg 16g\	.
32G\JJJ	.	.
!!LO:LB:g=original
=49	=49	=49
*^	*	*
16D 16DD/	4.ryy	4..gg 4..ffn 4..b 4..g\	>
32GLLL 32Fn\	.	.	.
32B\JJ	.	.	.
32GLL 32F\	.	.	.
32B\	.	.	.
32G 32F\	.	.	.
32B\JJJ	.	.	.
32GLLL 32F\	.	.	.
32B\	.	.	.
32G 32F\	.	.	.
32B\JJ	.	.	.
32GLL 32F\	8ryy	.	.
32B\	.	.	.
32G 32F\	.	16g/	.
32B\JJJ	.	.	]
*	*tremolo	*	*
8B 8G 8F\	32d>\LLL	2g/	.
.	32fn>\	.	.
.	32d>\	.	.
.	32fn>\	.	.
8rD	32d>\	.	.
.	32fn>\	.	.
.	32d>\	.	.
.	32fn>\	.	.
4rD	32d>\	.	.
.	32fn>\	.	.
.	32d>\	.	.
.	32fn>\	.	.
.	32d>\	.	.
.	32fn>\	.	.
.	32d>\	.	.
.	32fn>\JJJ	.	.
*	*Xtremolo	*	*
=50	=50	=50	=50
*tremolo	*	*	*
!	!LO:TX:t=P:problem:nuty obu głosów lewej ręki spięte pionową klamrą	!LO:TX:a:t=Ob.	!
!LO:TX:b:t=Cl	!LO:TX:b:t=Fag.	!	!
32d>\LLL	2B\	2gg 2g/	p <
32fn>\	.	.	.
32d>\	.	.	.
32fn>\	.	.	.
32d>\	.	.	.
32fn>\	.	.	.
32d>\	.	.	.
32fn>\	.	.	.
32d>\	.	.	.
32fn>\	.	.	.
32d>\	.	.	.
32fn>\	.	.	.
32d>\	.	.	.
32fn>\	.	.	.
32d>\	.	.	.
32fn>\JJJ	.	.	[
32d>\LLL	2c\	4.aa-X 4.a-X/	>
32f>\	.	.	.
32d>\	.	.	.
32f>\	.	.	.
32d>\	.	.	.
32f>\	.	.	.
32d>\	.	.	.
32f>\	.	.	.
32d>\	.	.	.
32f>\	.	.	.
32d>\	.	.	.
32f>\	.	.	.
32d>\	.	8aa- 8a-/	]]
32f>\	.	.	.
32d>\	.	.	.
32f>\JJJ	.	.	.
=51	=51	=51	=51
!	!	!LO:TX:t=P:problem:błędne wyświetlanie dolnego łuku	!
32d>\LLL	1B	(4.aa-X ((>4.a-X/	<
32fn>\	.	.	.
32d>\	.	.	.
32fn>\	.	.	.
32d>\	.	.	.
32fn>\	.	.	.
32d>\	.	.	.
32fn>\	.	.	.
32d>\	.	.	.
32fn>\	.	.	.
32d>\	.	.	.
32fn>\	.	.	.
32d>\	.	8gg 8g/)))	.
32fn>\	.	.	.
32d>\	.	.	.
32fn>\JJJ	.	.	.
32d>\LLL	.	2gg 2g/	.
32f>\	.	.	.
32d>\	.	.	.
32f>\	.	.	.
32d>\	.	.	.
32f>\	.	.	.
32d>\	.	.	.
32f>\	.	.	.
32d>\	.	.	.
32f>\	.	.	.
32d>\	.	.	.
32f>\	.	.	.
32d>\	.	.	.
32f>\	.	.	.
32d>\	.	.	.
32f>\JJJ	.	.	[
*Xtremolo	*	*	*
*v	*v	*	*
!!LO:LB:g=original
=52	=52	=52
!	!LO:TX:b:t=Tutti.	!
16BB 16BBB/	2gg#X 2ffn 2dd 2g#X\	ff
32FnLLL 32D\	.	.
32G#X\JJ	.	.
32FLL 32D\	.	.
32G#\	.	.
32F 32D\	.	.
32G#\JJJ	.	.
*tremolo	*	*
32FLLL 32D\	.	.
32G#\	.	.
32F 32D\	.	.
32G#\	.	.
32F 32D\	.	.
32G#\	.	.
32F 32D\	.	.
32G#\JJJ	.	.
*Xtremolo	*	*
16AA 16AAA/	4..aa 4..ff 4..dd 4..a\	.
32FLLL 32D\	.	.
32A\JJ	.	.
32FLL 32D\	.	.
32A\	.	.
32A 32F\	.	.
32A\JJJ	.	.
*tremolo	*	*
32FLLL 32D\	.	.
32A\	.	.
32F 32D\	.	.
32A\	.	.
32F 32D\	.	.
32A\	.	.
32F 32D\	16aa 16a\	.
32A\JJJ	.	.
*Xtremolo	*	*
=53	=53	=53
16GG#X 16GGG#X/	4..ccc 4..ffn 4..dd 4..cc\	.
32FnLLL 32D\	.	.
32d\JJ	.	.
32FLL 32D\	.	.
32d\	.	.
32F 32D\	.	.
32d\JJJ	.	.
*tremolo	*	*
32FLLL 32D\	.	.
32d\	.	.
32F 32D\	.	.
32d\	.	.
32F 32D\	.	.
32d\	.	.
32F 32D\	16bb 16b\	.
32d\JJJ	.	.
32d>\LLL	2bb 2b/	<
32fn>\	.	.
32d>\	.	.
32fn>\	.	.
32d>\	.	.
32fn>\	.	.
32d>\	.	.
32fn>\	.	.
32d>\	.	.
32fn>\	.	.
32d>\	.	.
32fn>\	.	.
32d>\	.	.
32fn>\	.	.
32d>\	.	.
32fn>\JJJ	.	[
*Xtremolo	*	*
!!LO:LB:g=original
=54	=54	=54
*^	*	*
*tremolo	*	*	*
!	!LO:TX:t=P:problem:oba głosy dolnej ręki spięte pionową klamrą	!LO:TX:a:t=Cl.:note=odnosi się do dolnego głosu	!
!LO:TX:b:t=V-lli.	!	!LO:TX:a:t=Fl.:note=odnosi się do górnego głosu	!
32d>\LLL	(2G\	2bb 2b/	p
32f#>\	.	.	.
32d>\	.	.	.
32f#>\	.	.	.
32d>\	.	.	.
32f#>\	.	.	.
32d>\	.	.	.
32f#>\	.	.	.
32d>\	.	.	.
32f#>\	.	.	.
32d>\	.	.	.
32f#>\	.	.	.
32d>\	.	.	.
32f#>\	.	.	.
32d>\	.	.	.
32f#>\JJJ	.	.	.
32d>\LLL	2A\)	4.aa 4.a/	.
32f#>\	.	.	.
32d>\	.	.	.
32f#>\	.	.	.
32d>\	.	.	.
32f#>\	.	.	.
32d>\	.	.	.
32f#>\	.	.	.
32d>\	.	.	.
32f#>\	.	.	.
32d>\	.	.	.
32f#>\	.	.	.
32d>\	.	8bb 8b/	.
32f#>\	.	.	.
32d>\	.	.	.
32f#>\JJJ	.	.	.
=55	=55	=55	=55
!	!	!LO:TX:t=P:problem:błędne wyświetlanie dolnego łuku	!
32d>\LLL	1B	(4.aa (>4.a/	<
32fn>\	.	.	.
32d>\	.	.	.
32fn>\	.	.	.
32d>\	.	.	.
32fn>\	.	.	.
32d>\	.	.	.
32fn>\	.	.	.
32d>\	.	.	.
32fn>\	.	.	.
32d>\	.	.	.
32fn>\	.	.	.
32d>\	.	8gg#X 8g#X/))	.
32fn>\	.	.	.
32d>\	.	.	.
32fn>\JJJ	.	.	.
32d>\LLL	.	8gg# 8g#/	.
32f>\	.	.	.
32d>\	.	.	.
32f>\	.	.	.
32d>\	.	8g#^/L	.
32f>\	.	.	.
32d>\	.	.	.
32f>\	.	.	.
32d>\	.	8b^/	.
32f>\	.	.	.
32d>\	.	.	.
32f>\	.	.	.
32d>\	.	8dd^/J	[[
32f>\	.	.	.
32d>\	.	.	.
32f>\JJJ	.	.	.
*Xtremolo	*	*	*
*v	*v	*	*
=56	=56	=56
!	!LO:TX:b:t=Tutti.	!
16Fn 16FFn/	2ffn 2cc 2a-X 2fn^\	ff
32A-XLLL 32F\	.	.
32c\JJ	.	.
32A-LL 32F\	.	.
32c\	.	.
32A- 32F\	.	.
32c\JJJ	.	.
*tremolo	*	*
32A-LLL 32F\	.	.
32c\	.	.
32A- 32F\	.	.
32c\	.	.
32A- 32F\	.	.
32c\	.	.
32A- 32F\	.	.
32c\JJJ	.	.
*Xtremolo	*	*
16F 16FF/	4..ff 4..cc 4..a- 4..f\	.
32A-LLL 32F\	.	.
32c\JJ	.	.
32A-LL 32F\	.	.
32c\	.	.
32A- 32F\	.	.
32c\JJJ	.	.
*tremolo	*	*
32A-LLL 32F\	.	.
32c\	.	.
32A- 32F\	.	.
32c\	.	.
32A- 32F\	.	.
32c\	.	.
32A- 32F\	16ff 16f\	.
32c\JJJ	.	.
*Xtremolo	*	*
!!LO:LB:g=original
=57	=57	=57
16E-X 16EE-X/	4..gg 4..cc 4..g\	.
32GLLL 32E-\	.	.
32c\JJ	.	.
32G 32E-\LL	.	.
32c\	.	.
32G 32E-\	.	.
32c\JJJ	.	.
*tremolo	*	*
32GLLL 32E-\	.	.
32c\	.	.
32G 32E-\	.	.
32c\	.	.
32G 32E-\	.	.
32c\	.	.
32G 32E-\	16cc\	.
32c\JJJ	.	.
*Xtremolo	*	*
16E- 16EE-/	2cc 2c/	.
32GLLL 32E-\	.	.
32c\JJ	.	.
32G 32E-\LL	.	.
32c\	.	.
32G 32E-\	.	.
32c\JJJ	.	.
*tremolo	*	*
32GLLL 32E-\	.	.
32c\	.	.
32G 32E-\	.	.
32c\	.	.
32G 32E-\	.	.
32c\	.	.
32G 32E-\	.	.
32c\JJJ	.	.
*Xtremolo	*	*
=58	=58	=58
16D 16DD/	2aa-X 2ffn 2cc 2a-X\	.
32A-XLLL 32Fn\	.	.
32c\JJ	.	.
32A- 32F\LL	.	.
32c\	.	.
32A- 32F\	.	.
32c\JJJ	.	.
*tremolo	*	*
32A- 32F\LLL	.	.
32c\	.	.
32A- 32F\	.	.
32c\	.	.
32A- 32F\	.	.
32c\	.	.
32A- 32F\	.	.
32c\JJJ	.	.
*Xtremolo	*	*
16GG 16GGG/	4..gg 4..ff 4..b 4..g\	.
32BLLL 32G 32F\	.	.
32d\JJ	.	.
32B 32G 32F\LL	.	.
32d\	.	.
32B 32G 32F\	.	.
32d\JJJ	.	.
*tremolo	*	*
32BLLL 32G 32F\	.	.
32d\	.	.
32B 32G 32F\	.	.
32d\	.	.
32B 32G 32F\	.	.
32d\	.	.
32B 32G 32F\	16gg 16g\	.
32d\JJJ	.	.
*Xtremolo	*	*
!!LO:LB:g=original
=59	=59	=59
8c 8G 8En 8C\	8gg 8ee 8cc 8g\	.
!	!LO:TX:b:t=Cor.	!
4C/	4c/	.
4C/	4c/	>
(8C'/L	(8c'/L	.
8C'/	8c'/	.
8C'/J)	8c'/J)	]]
!!LO:REH:t=3
=60	=60	=60
!	!LO:TX:B:a:t=Un poco più mosso.	!
(8qC/	.	.
!	!LO:TX:b:t=Q. ed Arm.	!
([2c\)	8r	p
.	(8gL 8e/	.
.	8f#X 8d#X/	.
.	8gJ 8e/)	.
8c\L]	[2a-X [2fn^/	.
8B\	.	.
8A#X\	.	.
8B\J)	.	.
=61	=61	=61
([2c\	8a-]L 8f/]	.
.	8g 8e/	.
.	8f#X 8d#X/	.
.	8gJ 8e/	.
8c\L]	2a-X [2fn^/	.
8B\	.	.
8c\	.	.
8c#X\J)	.	.
=62	=62	=62
!	!	!LO:HP:b:t=cre-scen-do:ext2=ud
[2d\	8a-XL 8f/]	<
.	8an 8f#X/	.
.	8g#X 8e#X/	.
.	8aJ 8f#/	.
8d\L]	[2b-X [2gn^/	.
(8e-X\	.	.
8d\	.	.
8c#X\J)	.	.
!!LO:PB:g=original
=63	=63	=63
[2d\	8b-]L 8g/]	.
.	8a 8f#/	.
.	8g#X 8e#X/	.
.	8aJ 8f#/	.
8d\L]	[2b-X [2gn/	.
8c#X\	.	.
8d\	.	.
8d#X\J	.	.
=64	=64	=64
[2e\	8b-]L 8g/]	[
.	8bn 8g#X/	.
.	8a#X 8f##X/	.
.	8bJ 8g#/	.
8e\L]	[2cc [2an^/	.
8fn\	.	.
8e\	.	.
8d#X\J	.	.
=65	=65	=65
[2e\	8cc]L 8a/]	.
.	8b 8g#X/	.
.	8a#X 8f##X/	.
.	8bJ 8g#/	.
8e\L]	2cc 2an^/	.
8d#X\	.	.
8e\	.	.
8d#\J	.	.
!!LO:LB:g=original
=66	=66	=66
*^	*^	*
!!LO:TX:B:a:t=tempo primitivo.
!	!	!LO:TX:b:t=Q.	!	!
(4e/	[1E	(8cc/L	4gn\	pp
!	!	!LO:TX:b:i:t=dolciss.	!	!
.	.	8b/	.	.
4d/	.	8a#X/	[4f#\	.
.	.	8b/J	.	.
4c/	.	4ee/	8f#\L]	.
.	.	.	8an\J	.
4B/	.	8dd/L	4d\	.
.	.	[8g/J)	.	.
=67	=67	=67	=67	=67
4A/	1E]	8g/L]	4c\	.
.	.	8f#/	.	.
4G/	.	8d#X/	8B\L	.
.	.	[8e/J	8e\J	.
4F#/	.	4cc/	(8e\]	.
.	.	.	4d#\	.
4A 4F#/)	.	[4b/	.	.
.	.	.	8dn\	.
=68	=68	=68	=68	=68
4G/	4E\	(8b/L]	4c\	.
.	.	8a#X/J)	.	.
4F#X/	4D#X\	8r	4cn\	.
.	.	[8an/	.	.
4Fn/	4Dn\	(8a/L]	4B\	.
.	.	8g#X/J)	.	.
4E/	4C#X\	8r	4A#X\)	.
.	.	[8gn/	.	.
!!LO:LB:g=original
=69	=69	=69	=69	=69
*	*	*	*^	*
(>4.Cn/	1EE	8g/L]	(4.An\	4.ryy	.
.	.	(8g^/	.	.	.
.	.	8f#/)	.	.	.
8BB/)	.	8e/J	8G\)	8ryy	.
!	!	!LO:TX:t=P:problem: wszystkie nuty akordu należące do prawej ręki połączone pionową klamrą	!	!	!
4AA/	.	4e/	4c\	2F#</	.
4BB/	.	4d#X/	8B\L	.	.
.	.	.	8A\J	.	.
*v	*v	*	*	*	*
*	*v	*v	*v	*
!!LO:REH:t=4
=70	=70	=70
*tremolo	*	*
!	!LO:TX:b:t=Tutti.	!
32BBLLL 32EE/	2e 2G/	p
32E/	.	.
32BB 32EE/	.	.
32E/	.	.
32BB 32EE/	.	.
32E/	.	.
32BB 32EE/	.	.
32E/	.	.
32BB 32EE/	.	.
32E/	.	.
32BB 32EE/	.	.
32E/	.	.
32BB 32EE/	.	.
32E/	.	.
32BB 32EE/	.	.
32E/JJJ	.	.
32BB/LLL	4e 4G/	.
32E/	.	.
32BB/	.	.
32E/	.	.
32BB/	.	.
32E/	.	.
32BB/	.	.
32E/	.	.
32BB/	4f# 4B/	.
32E/	.	.
32BB/	.	.
32E/	.	.
32BB/	.	.
32E/	.	.
32BB/	.	.
32E/JJJ	.	.
=71	=71	=71
32BBLLL 32EE/	4.g 4.e/	.
32E/	.	.
32BB 32EE/	.	.
32E/	.	.
32BB 32EE/	.	.
32E/	.	.
32BB 32EE/	.	.
32E/	.	.
32BB 32EE/	.	.
32E/	.	.
32BB 32EE/	.	.
32E/	.	.
32BB 32EE/	8g 8e/	.
32E/	.	.
32BB 32EE/	.	.
32E/JJJ	.	.
32e\LLL	(4g/	.
32E\	.	.
32e\	.	.
32E\	.	.
32e\	.	.
32E\	.	.
32e\	.	.
32E\JJJ	.	.
32d\LLL	4b 4f#/	.
32E\	.	.
32d\	.	.
32E\	.	.
32d\	.	.
32E\	.	.
32d\	.	.
32E\JJJ	.	.
=72	=72	=72
32c\LLL	4ee 4e/	.
32E\	.	.
32c\	.	.
32E\	.	.
32c\	.	.
32E\	.	.
32c\	.	.
32E\JJJ	.	.
32B\LLL	4dd 4g/	.
32E\	.	.
32B\	.	.
32E\	.	.
32B\	.	.
32E\	.	.
32B\	.	.
32E\JJJ	.	.
32A\LLL	4cc 4c/	.
32E\	.	.
32A\	.	.
32E\	.	.
32A\	.	.
32E\	.	.
32A\	.	.
32E\JJJ	.	.
32G\LLL	4b 4e/)	.
32E\	.	.
32G\	.	.
32E\	.	.
32G\	.	.
32E\	.	.
32G\	.	.
32E\JJJ	.	.
!!LO:LB:g=original
=73	=73	=73
*	*^	*
32Fn/LLL	(4a/	1c	.
32EE/	.	.	.
32F/	.	.	.
32EE/	.	.	.
32F/	.	.	.
32EE/	.	.	.
32F/	.	.	.
32EE/JJJ	.	.	.
32E/LLL	4cc/	.	.
32EE/	.	.	.
32E/	.	.	.
32EE/	.	.	.
32E/	.	.	.
32EE/	.	.	.
32E/	.	.	.
32EE/JJJ	.	.	.
32D/LLL	4fn/	.	.
32EE/	.	.	.
32D/	.	.	.
32EE/	.	.	.
32D/	.	.	.
32EE/	.	.	.
32D/	.	.	.
32EE/JJJ	.	.	.
32C/LLL	4a/)	.	.
32EE/	.	.	.
32C/	.	.	.
32EE/	.	.	.
32C/	.	.	.
32EE/	.	.	.
32C/	.	.	.
32EE/JJJ	.	.	.
=74	=74	=74	=74
32BB/LLL	(4a/	1d	.
32EE/	.	.	.
32BB/	.	.	.
32EE/	.	.	.
32BB/	.	.	.
32EE/	.	.	.
32BB/	.	.	.
32EE/	.	.	.
.	8qa/	.	.
32BB/	8.g/L	.	.
32EE/	.	.	.
32BB/	.	.	.
32EE/	.	.	.
32BB/	.	.	.
32EE/	.	.	.
32BB/	16fn/Jk)	.	.
32EE/JJJ	.	.	.
32CLLL 32AA/	(4g/	.	.
32EE/	.	.	.
32C 32AA/	.	.	.
32EE/	.	.	.
32C 32AA/	.	.	.
32EE/	.	.	.
32C 32AA/	.	.	.
32EE/	.	.	.
32C 32AA/	4a/)	.	.
32EE/	.	.	.
32C 32AA/	.	.	.
32EE/	.	.	.
32C 32AA/	.	.	.
32EE/	.	.	.
32C 32AA/	.	.	.
32EE/JJJ	.	.	.
=75	=75	=75	=75
32AA/LLL	(4g/	1c	<
32EE/	.	.	.
32AA/	.	.	.
32EE/	.	.	.
32AA/	.	.	.
32EE/	.	.	.
32AA/	.	.	.
32EE/	.	.	.
32AA/	4fn/	.	[[
32EE/	.	.	.
32AA/	.	.	.
32EE/	.	.	.
32AA/	.	.	.
32EE/	.	.	.
32AA/	.	.	.
32EE/JJJ	.	.	.
32AA/LLL	4cc/	.	>
32EE/	.	.	.
32AA/	.	.	.
32EE/	.	.	.
32AA/	.	.	.
32EE/	.	.	.
32AA/	.	.	.
32EE/	.	.	.
32AA/	[4f/)	.	]]
32EE/	.	.	.
32AA/	.	.	.
32EE/	.	.	.
32AA/	.	.	.
32EE/	.	.	.
32AA/	.	.	.
32EE/JJJ	.	.	.
=76	=76	=76	=76
32GG/LLL	(4f/]	1B	.
32EE/	.	.	.
32GG/	.	.	.
32EE/	.	.	.
32GG/	.	.	.
32EE/	.	.	.
32GG/	.	.	.
32EE/	.	.	.
.	(8qfn/	.	.
32GG/	8.e/L)	.	.
32EE/	.	.	.
32GG/	.	.	.
32EE/	.	.	.
32GG/	.	.	.
32EE/	.	.	.
32GG/	16d#X/Jk	.	.
32EE/JJJ	.	.	.
32GG/LLL	4e/	.	.
32EE/	.	.	.
32GG/	.	.	.
32EE/	.	.	.
32GG/	.	.	.
32EE/	.	.	.
32GG/	.	.	.
32EE/	.	.	.
32GG/	4f#X/	.	.
32EE/	.	.	.
32GG/	.	.	.
32EE/	.	.	.
32GG/	.	.	.
32EE/	.	.	.
32GG/	.	.	.
32EE/JJJ	.	.	.
!!LO:LB:g=original
=77	=77	=77	=77
*^	*	*	*
32FF#/LLL	2EE^\	4e/	2A\	pp
32AA/	.	.	.	.
32FF#/	.	.	.	.
32AA/	.	.	.	.
32FF#/	.	.	.	.
32AA/	.	.	.	.
32FF#/	.	.	.	.
32AA/	.	.	.	.
32FF#/	.	8d#X/)	.	.
32AA/	.	.	.	.
32FF#/	.	.	.	.
32AA/	.	.	.	.
32FF#/	.	8r	.	.
32AA/	.	.	.	.
32FF#/	.	.	.	.
32AA/JJJ	.	.	.	.
32FF#/LLL	2EE^\	(4.a^/	2c\	.
32AA/	.	.	.	.
32FF#/	.	.	.	.
32AA/	.	.	.	.
32FF#/	.	.	.	.
32AA/	.	.	.	.
32FF#/	.	.	.	.
32AA/	.	.	.	.
32FF#/	.	.	.	.
32AA/	.	.	.	.
32FF#/	.	.	.	.
32AA/	.	.	.	.
!	!	!LO:TX:i:a:t=legatissimo	!	!
32FF#/	.	8d#/	.	.
32AA/	.	.	.	.
32FF#/	.	.	.	.
32AA/JJJ	.	.	.	.
=78	=78	=78	=78	=78
32FF#/LLL	2EE^\	4.b^>/	2ryy	.
32AA/	.	.	.	.
32FF#/	.	.	.	.
32AA/	.	.	.	.
32FF#/	.	.	.	.
32AA/	.	.	.	.
32FF#/	.	.	.	.
32AA/	.	.	.	.
32FF#/	.	.	.	.
32AA/	.	.	.	.
32FF#/	.	.	.	.
32AA/	.	.	.	.
32FF#/	.	8d#X/	.	.
32AA/	.	.	.	.
32FF#/	.	.	.	.
32AA/JJJ	.	.	.	.
32FF#/LLL	2EE^\	4.cc^/	2A\	.
32AA/	.	.	.	.
32FF#/	.	.	.	.
32AA/	.	.	.	.
32FF#/	.	.	.	.
32AA/	.	.	.	.
32FF#/	.	.	.	.
32AA/	.	.	.	.
32FF#/	.	.	.	.
32AA/	.	.	.	.
32FF#/	.	.	.	.
32AA/	.	.	.	.
32FF#/	.	8d#/	.	.
32AA/	.	.	.	.
32FF#/	.	.	.	.
32AA/JJJ	.	.	.	.
=79	=79	=79	=79	=79
32FF#/LLL	2EE^\	4.b^/	2B\	.
32AA/	.	.	.	.
32FF#/	.	.	.	.
32AA/	.	.	.	.
32FF#/	.	.	.	.
32AA/	.	.	.	.
32FF#/	.	.	.	.
32AA/	.	.	.	.
32FF#/	.	.	.	.
32AA/	.	.	.	.
32FF#/	.	.	.	.
32AA/	.	.	.	.
32FF#/	.	8d#X/	.	.
32AA/	.	.	.	.
32FF#/	.	.	.	.
32AA/JJJ	.	.	.	.
32FF#/LLL	2EE^\	4.a^/	2c\	.
32AA/	.	.	.	.
32FF#/	.	.	.	.
32AA/	.	.	.	.
32FF#/	.	.	.	.
32AA/	.	.	.	.
32FF#/	.	.	.	.
32AA/	.	.	.	.
32FF#/	.	.	.	.
32AA/	.	.	.	.
32FF#/	.	.	.	.
32AA/	.	.	.	.
32FF#/	.	8d#/	.	.
32AA/	.	.	.	.
32FF#/	.	.	.	.
32AA/JJJ	.	.	.	.
=80	=80	=80	=80	=80
32FF#/LLL	2EE^\	4.b^/	2B\	.
32AA/	.	.	.	.
32FF#/	.	.	.	.
32AA/	.	.	.	.
32FF#/	.	.	.	.
32AA/	.	.	.	.
32FF#/	.	.	.	.
32AA/	.	.	.	.
32FF#/	.	.	.	.
32AA/	.	.	.	.
32FF#/	.	.	.	.
32AA/	.	.	.	.
32FF#/	.	8d#X/	.	.
32AA/	.	.	.	.
32FF#/	.	.	.	.
32AA/JJJ	.	.	.	.
32FF#/LLL	2EE^\	4.cc^/	2A\	.
32AA/	.	.	.	.
32FF#/	.	.	.	.
32AA/	.	.	.	.
32FF#/	.	.	.	.
32AA/	.	.	.	.
32FF#/	.	.	.	.
32AA/	.	.	.	.
32FF#/	.	.	.	.
32AA/	.	.	.	.
32FF#/	.	.	.	.
32AA/	.	.	.	.
32FF#/	.	8d#/)	.	.
32AA/	.	.	.	.
32FF#/	.	.	.	.
32AA/JJJ	.	.	.	.
=81	=81	=81	=81	=81
32FF#/LLL	2EE^\	(4.b^/	(2B\	.
32AA/	.	.	.	.
32FF#/	.	.	.	.
32AA/	.	.	.	.
32FF#/	.	.	.	.
32AA/	.	.	.	.
32FF#/	.	.	.	.
32AA/	.	.	.	.
32FF#/	.	.	.	.
32AA/	.	.	.	.
32FF#/	.	.	.	.
32AA/	.	.	.	.
!	!	!	!	!LO:HP:b:t=cre-scen-do:ext2=ud
32FF#/	.	8d#X/	.	<
32AA/	.	.	.	.
32FF#/	.	.	.	.
32AA/JJJ	.	.	.	.
32FF#/LLL	2EE^\	4.a^/	2c\	.
32AA/	.	.	.	.
32FF#/	.	.	.	.
32AA/	.	.	.	.
32FF#/	.	.	.	.
32AA/	.	.	.	.
32FF#/	.	.	.	.
32AA/	.	.	.	.
32FF#/	.	.	.	.
32AA/	.	.	.	.
32FF#/	.	.	.	.
32AA/	.	.	.	.
32FF#/	.	8d#/	.	.
32AA/	.	.	.	.
32FF#/	.	.	.	.
32AA/JJJ	.	.	.	.
!!LO:LB:g=original
=82	=82	=82	=82	=82
32FF#/LLL	2EE^\	4.b^/	2B\	.
32AA/	.	.	.	.
32FF#/	.	.	.	.
32AA/	.	.	.	.
32FF#/	.	.	.	.
32AA/	.	.	.	.
32FF#/	.	.	.	.
32AA/	.	.	.	.
32FF#/	.	.	.	.
32AA/	.	.	.	.
32FF#/	.	.	.	.
32AA/	.	.	.	.
32FF#/	.	8d#X/	.	.
32AA/	.	.	.	.
32FF#/	.	.	.	.
32AA/JJJ	.	.	.	.
32FF#/LLL	2EE^\	4.b#X^/	2A\)	.
32AA/	.	.	.	.
32FF#/	.	.	.	.
32AA/	.	.	.	.
32FF#/	.	.	.	.
32AA/	.	.	.	.
32FF#/	.	.	.	.
32AA/	.	.	.	.
32FF#/	.	.	.	[
32AA/	.	.	.	.
32FF#/	.	.	.	.
32AA/	.	.	.	.
32FF#/	.	8d#/)	.	.
32AA/	.	.	.	.
32FF#/	.	.	.	.
32AA/JJJ	.	.	.	.
*	*	*v	*v	*
=83	=83	=83	=83
32FF#/LLL	2EE^\	(>2.cc#X 2.A/	sf >
32AA/	.	.	.
32FF#/	.	.	.
32AA/	.	.	.
32FF#/	.	.	.
32AA/	.	.	.
32FF#/	.	.	.
32AA/	.	.	.
32FF#/	.	.	.
32AA/	.	.	.
32FF#/	.	.	.
32AA/	.	.	.
32FF#/	.	.	.
32AA/	.	.	.
32FF#/	.	.	.
32AA/JJJ	.	.	]]
32FF#/LLL	2EE^\	.	.
32AA/	.	.	.
32FF#/	.	.	.
32AA/	.	.	.
32FF#/	.	.	.
32AA/	.	.	.
32FF#/	.	.	.
32AA/	.	.	.
32FF#/	.	4d#X/)	.
32AA/	.	.	.
32FF#/	.	.	.
32AA/	.	.	.
32FF#/	.	.	.
32AA/	.	.	.
32FF#/	.	.	.
32AA/JJJ	.	.	.
=84	=84	=84	=84
*	*	*^	*
32FF#/LLL	2EE^\	(2.ccn/	2.A\	ppp
32AA/	.	.	.	.
32FF#/	.	.	.	.
32AA/	.	.	.	.
32FF#/	.	.	.	.
32AA/	.	.	.	.
32FF#/	.	.	.	.
32AA/	.	.	.	.
32FF#/	.	.	.	.
32AA/	.	.	.	.
32FF#/	.	.	.	.
32AA/	.	.	.	.
32FF#/	.	.	.	.
32AA/	.	.	.	.
32FF#/	.	.	.	.
32AA/JJJ	.	.	.	.
32FF#/LLL	2EE^\	.	.	.
32AA/	.	.	.	.
32FF#/	.	.	.	.
32AA/	.	.	.	.
32FF#/	.	.	.	.
32AA/	.	.	.	.
32FF#/	.	.	.	.
32AA/	.	.	.	.
32FF#/	.	4d#X/)	4ryy	.
32AA/	.	.	.	.
32FF#/	.	.	.	.
32AA/	.	.	.	.
32FF#/	.	.	.	.
32AA/	.	.	.	.
32FF#/	.	.	.	.
32AA/JJJ	.	.	.	.
*Xtremolo	*	*	*	*
*v	*v	*	*	*
*	*v	*v	*
=85	=85	=85
2BB 2GG 2EE/	2e 2G/	.
4BB 4GG/	4e 4G/	.
4E 4EE/	4e 4G/	.
=86	=86	=86
*^	*^	*
(4G/	2E\	2e/	2ryy	.
4B/)	.	.	.	.
4B 4G/	4E\	4e/	4e\	.
!LO:TX:B:b:t=ZASŁONA.	!	!	!	!
!LO:TX:i:b:t=SI ALZA LA TELA.	!	!	!	!
4B 4G/	4E\	4g/	4g\	.
*v	*v	*	*	*
*	*v	*v	*
==	==	==
*-	*-	*-
!!!system-decoration: {(p1)}
!!!ENC: Berenika Jozajtis
!!!END: 2022-08-25
!!!ENC: Kamil Watkowski
!!!END: 2022-09-30
!!!RDF**kern: > = above
!!!RDF**kern: < = below
!!!YEM: License CC-BY-4.0 (https://creativecommons.org/licenses/by/4.0)
!!!YEC: Copyright 2022 Narodowy Instytut Fryderyka Chopina (https://polishscores.org)
